assets/icons/cutlery.svg

<?xml version="1.0" encoding="UTF-8"?>
<svg width="50px" height="50px" viewBox="0 0 50 50" version="1.1" xmlns="http://www.w3.org/2000/svg" xmlns:xlink="http://www.w3.org/1999/xlink">
    <!-- Generator: Sketch 59.1 (86144) - https://sketch.com -->
    <title>cutlery</title>
    <desc>Created with Sketch.</desc>
    <g id="Page-1" stroke="none" stroke-width="1" fill="none" fill-rule="evenodd">
        <g id="quote_form" transform="translate(-575.000000, -51.000000)" fill="#C6C4C4" fill-rule="nonzero">
            <g id="timeline" transform="translate(215.000000, 50.000000)">
                <g id="cutlery" transform="translate(360.000000, 1.000000)">
                    <path d="M13.7936523,3.11793372 C12.2829102,1.10740741 10.2433594,0.000292397661 8.05078125,0.000292397661 C5.85830078,0.000292397661 3.81884766,1.10750487 2.30800781,3.11783626 C0.871191406,5.02982456 0.0799804688,7.55409357 0.0799804688,10.225731 C0.0799804688,12.8974659 0.871191406,15.4216374 2.30810547,17.3336257 C3.1484375,18.4518519 4.15263672,19.2895712 5.25537109,19.8137427 L3.56894531,45.1216374 C3.48671875,46.3548733 3.92490234,47.5798246 4.77099609,48.4822612 C5.6171875,49.3848928 6.81289062,49.9026316 8.05136719,49.9026316 C9.28955078,49.9026316 10.484668,49.3851852 11.3305664,48.4830409 C12.1766602,47.5805068 12.6148438,46.3553606 12.5324219,45.1218324 L10.8459961,19.81423 C11.9489258,19.289961 12.9532227,18.4522417 13.7936523,17.3338207 C15.2303711,15.4218324 16.0217773,12.8974659 16.0217773,10.2259259 C16.0217773,7.55438596 15.2305664,5.02992203 13.7936523,3.11793372 Z M9.65566406,46.9190058 C9.23574219,47.3669591 8.66591797,47.6136452 8.05126953,47.6136452 C7.43613281,47.6136452 6.86591797,47.3667641 6.44560547,46.9185185 C6.02548828,46.4701754 5.81650391,45.8861598 5.85722656,45.2737817 L7.51289062,20.4264133 C7.69121094,20.4413255 7.87021484,20.4515595 8.05078125,20.4515595 C8.23125,20.4515595 8.41015625,20.4412281 8.58837891,20.4264133 L10.244043,45.2737817 C10.2847656,45.8864522 10.0759766,46.4707602 9.65566406,46.9190058 Z M8.05078125,18.1623782 C7.63994141,18.1623782 7.23945312,18.0995127 6.853125,17.9831384 C6.82109375,17.971345 6.78867188,17.9605263 6.75546875,17.9515595 C4.24736328,17.1298246 2.3734375,13.9789474 2.3734375,10.2258285 C2.3734375,5.8497076 4.9203125,2.28927875 8.05078125,2.28927875 C11.1813477,2.28927875 13.7283203,5.84961014 13.7283203,10.2258285 C13.7283203,14.6020468 11.1814453,18.1623782 8.05078125,18.1623782 Z" id="Shape"></path>
                    <path d="M49.9199219,29.8167641 L49.9199219,1.28869396 L49.9102539,1.29288499 C49.9433594,1.04074074 49.8932617,0.776023392 49.7488281,0.542787524 C49.4158203,0.00516569201 48.7092773,-0.161208577 48.1703125,0.171150097 C43.4920898,3.05779727 40.6987305,8.05769981 40.6978516,13.5462963 C40.6978516,13.547076 40.6977539,13.5477583 40.6977539,13.5484405 L40.6977539,28.5368421 C40.6977539,29.8519493 41.7507813,30.9230994 43.0580078,30.9628655 L43.0580078,46.4619883 C43.0580078,48.3501949 44.597168,49.8863548 46.4890625,49.8863548 C48.380957,49.8863548 49.9202148,48.3501949 49.9202148,46.4619883 L49.9202148,29.8225146 C49.9201172,29.8205653 49.9199219,29.8187135 49.9199219,29.8167641 Z M43.1323242,28.6778752 C43.0541992,28.6778752 42.9913086,28.6148148 42.9913086,28.537037 L42.9913086,13.5504873 C42.9913086,13.55 42.9914062,13.5496101 42.9914062,13.5491228 C42.9914062,9.58996101 44.6918945,5.92836257 47.6263672,3.39912281 L47.6263672,28.6778752 L43.1323242,28.6778752 Z M47.6266602,46.4621832 C47.6266602,47.0882066 47.1164062,47.5975634 46.4889648,47.5975634 C45.8617188,47.5975634 45.3513672,47.0883041 45.3513672,46.4621832 L45.3513672,30.9669591 L47.6266602,30.9669591 L47.6266602,46.4621832 Z" id="Shape"></path>
                    <path d="M32.4999023,0.000292397661 C31.8666016,0.000292397661 31.353125,0.512670565 31.353125,1.14483431 L31.353125,14.1467836 L28.43125,14.1467836 L28.43125,1.14483431 C28.43125,0.512768031 27.9177734,0.000292397661 27.2844727,0.000292397661 C26.6511719,0.000292397661 26.1376953,0.512670565 26.1376953,1.14483431 L26.1376953,14.1467836 L23.2158203,14.1467836 L23.2158203,1.14483431 C23.2158203,0.512768031 22.7023437,0.000292397661 22.069043,0.000292397661 C21.4357422,0.000292397661 20.9222656,0.512670565 20.9222656,1.14483431 L20.9222656,17.7124756 C20.9222656,19.5779727 22.4430664,21.0959064 24.3123047,21.0959064 L24.5163086,21.0959064 L22.9074219,45.2333333 C22.8266602,46.437232 23.2541992,47.6333333 24.0805664,48.5150097 C24.9070312,49.3969786 26.074707,49.902729 27.284375,49.902729 C28.4938477,49.902729 29.6615234,49.3969786 30.4880859,48.5151072 C31.3143555,47.6335283 31.7418945,46.4373294 31.6612305,45.2338207 L30.0522461,21.0959064 L30.2566406,21.0959064 C32.1259766,21.0959064 33.6467773,19.5780702 33.6467773,17.7124756 L33.6467773,1.14473684 C33.646582,0.512670565 33.1331055,0.000292397661 32.4999023,0.000292397661 Z M28.8129883,46.9512671 C28.412793,47.3783626 27.8698242,47.6135478 27.2842773,47.6135478 C26.6987305,47.6135478 26.1557617,47.3783626 25.7555664,46.9512671 C25.3555664,46.5244639 25.1567383,45.968616 25.1958008,45.3856725 L26.8147461,21.0957115 L27.7537109,21.0957115 L29.3727539,45.3859649 C29.4118164,45.968616 29.2130859,46.5244639 28.8129883,46.9512671 Z M31.3530273,17.7123782 C31.353125,18.3158869 30.8612305,18.8067251 30.256543,18.8067251 L25.7036133,18.8067251 C25.7021484,18.8068226 25.7005859,18.8066277 25.6991211,18.8067251 L24.3124023,18.8067251 C23.7077148,18.8067251 23.215918,18.3158869 23.215918,17.7123782 L23.215918,16.435575 L31.3530273,16.435575 L31.3530273,17.7123782 Z" id="Shape"></path>
                </g>
            </g>
        </g>
    </g>
</svg>

<svg xmlns="http://www.w3.org/2000/svg" width="50" height="50" viewBox="0 0 50 50"><path fill="#C6C4C4" d="M13.794 3.118C12.283 1.108 10.244 0 8.05 0 5.858 0 3.819 1.108 2.308 3.118.871 5.03.08 7.554.08 10.226c0 2.671.791 5.196 2.228 7.108.84 1.118 1.845 1.956 2.947 2.48L3.57 45.122a4.494 4.494 0 0 0 1.202 3.36 4.512 4.512 0 0 0 3.28 1.42 4.51 4.51 0 0 0 3.28-1.419 4.494 4.494 0 0 0 1.201-3.361l-1.686-25.308c1.103-.524 2.107-1.362 2.948-2.48 1.436-1.912 2.228-4.437 2.228-7.108 0-2.672-.791-5.196-2.228-7.108zM9.656 46.919c-.42.448-.99.695-1.605.695a2.18 2.18 0 0 1-1.605-.695 2.171 2.171 0 0 1-.589-1.645l1.656-24.848c.178.015.357.026.538.026.18 0 .36-.01.537-.026l1.656 24.848a2.17 2.17 0 0 1-.588 1.645zM8.05 18.162a4.14 4.14 0 0 1-1.296-.21c-2.508-.822-4.382-3.973-4.382-7.726 0-4.376 2.547-7.937 5.678-7.937 3.13 0 5.677 3.56 5.677 7.937 0 4.376-2.547 7.936-5.677 7.936zm41.87 11.655V1.289l-.01.004A1.148 1.148 0 0 0 48.17.17c-4.678 2.887-7.471 7.887-7.472 13.375v14.992a2.433 2.433 0 0 0 2.36 2.426v15.499a3.432 3.432 0 0 0 6.862 0V29.817zm-6.788-1.14a.14.14 0 0 1-.14-.14V13.55c0-3.96 1.7-7.622 4.634-10.15v25.278h-4.494zm4.495 17.785a1.138 1.138 0 0 1-2.276 0V30.967h2.276v15.495zM32.5 0c-.633 0-1.147.513-1.147 1.145v13.002h-2.922V1.145a1.146 1.146 0 0 0-2.293 0v13.002h-2.922V1.145a1.146 1.146 0 0 0-2.294 0v16.567a3.39 3.39 0 0 0 3.39 3.384h.204l-1.609 24.137a4.386 4.386 0 0 0 1.174 3.282 4.406 4.406 0 0 0 3.203 1.388c1.21 0 2.378-.506 3.204-1.388a4.386 4.386 0 0 0 1.173-3.281l-1.609-24.138h.205a3.39 3.39 0 0 0 3.39-3.384V1.145C33.647.513 33.133 0 32.5 0zm-3.687 46.951c-.4.427-.943.663-1.529.663a2.074 2.074 0 0 1-1.528-.663 2.065 2.065 0 0 1-.56-1.565l1.619-24.29h.939l1.619 24.29a2.064 2.064 0 0 1-.56 1.565zm2.54-29.239c0 .604-.492 1.095-1.096 1.095h-5.945a1.097 1.097 0 0 1-1.096-1.095v-1.276h8.137v1.276z"/></svg>
